X:16
T:Jigs 6 - Would You Marry a Young Virgin?*
T:Young May Moon
M:6/8
L:1/8
K:D
A | "D"d2A d2A | "G"B2A "A"ABc | "Bm"d2d "A"ede | "D"f2d def |
"Em"g2g "Bm"f2f | "Em"efd "A"cBA | "G"BAG "D"FGA | "G"B2A "A"A2 :|
f/g/ | "D"a2b afe | "G"b2b "D"a3 | "G"b2b "D"afd | "Bm"f2e "A"e2a |
"G"b2b "D"a2g | "Bm"fed "A"cBA | "G"BAG "D"FGA | "G"B2A "A"A2 :|
T:Would You Marry a Young Virgin?
K:D
F/G/ | "D"ABA ABA | d2 AA2 F/G/ | ABA ABA | "A"eeA AFG|
"D"ABA ABA | "Bm"d2A "A"e2A | "G"fed "A"Adc | "D"d2D D3:|
e | "D"fed fed | "A"e2A A3 | "D"fed "Bm"fed | "Em"g2e "A"e3 |
"D"fed fed | "Em"gfe "A"a2g | "G"fed "A"Adc | "D"d2D D3:|
%%newpage

